X:1
T:Title
%%score { 1 | 2 }
L:1/8
M:3/4
K:Ab
V:1 treble nm="Grand Piano"
V:2 bass 
V:1
 z2 z2[Q:1/4=100] [CE]>[CA] | [Ec]3 [CEA] [B,EG]>[DEB] | [CEA]4 [CA]>[CA] | [Fd]3 [Fd] [FA]>[FB] | %4
[M:2/4] [Ec]4 |[M:1/4] [EAc]>[EAc] |[M:3/4] [EGB]3 [EAc] [DGB]>[CEA] | [B,EG]4 [CFA]>[CFA] | %8
 [B,EG]3 [B,GB] [B,FA]>[A,=DF] |[M:2/4] [G,E]4 |[M:1/4] [CE]>[CA] | %11
[M:3/4] [Ec]3 [CEA] [B,EG]>[DEB] | [CEA]4 [CA]>[CA] | [DAd]3 [DAd] [DFA]>[FB] |[M:2/4] [Ec]4 | %15
[M:1/4] [Ec]>[Ec] |[M:3/4] [Ee]3 [Ec] [=EB][FA] | F4 [=Ec]>[FA] | [=EG]3 C [CFA]>[B,CG] | %19
[M:2/4] [A,CF]4 |[M:1/4] E>E |[M:3/4] [CEA]3 [A,CE] [A,EA]>B | c4 A>B | c3 A c>d |[M:2/4] e4 | %25
[M:1/4] [Ge]>[Ge] |[M:3/4] [Ae]3 [Ec] [EB][EA] | [DF]4 [FA]>F | E3 E FG |[M:2/4] [CA]4 |] %30
V:2
 z2 z2 [A,,A,]>[A,,A,] | [A,,A,]3 A,, E,>E, | A,,4 A,>A, | [D,A,]3 [D,A,] [D,A,]>[D,A,] | %4
[M:2/4] [A,,A,]4 |[M:1/4] A,>A, |[M:3/4] E,3 E, E,>E, | E,4 A,,>A,, | B,,3 B,, B,,>B,, | %9
[M:2/4] E,4 |[M:1/4] [A,,A,]>[A,,A,] |[M:3/4] [A,,A,]3 A,, E,>E, | A,,4 A,>A, | F,3 F, D,>[D,A,] | %14
[M:2/4] [A,,A,]4 |[M:1/4] [A,,A,]>[A,,A,] |[M:3/4] [C,A,]3 [C,A,] [C,G,][C,F,] | %17
 [F,A,]4 [C,G,]>[C,C] | [C,C]3 C, C,>C, |[M:2/4] F,4 |[M:1/4] E,>E, |[M:3/4] A,,3 A,, C,>[E,G,E] | %22
 [A,E]4 [A,CE]>[A,DE] | [A,EA]3 [A,C] [A,EA]>[A,DA] |[M:2/4] [A,CA]4 | %25
[M:1/4][K:bass] [E,B,]>[E,B,] |[M:3/4] [A,C]3 [A,,A,] [B,,G,][C,A,] | [D,A,]4 [D,A,]>[D,A,D] | %28
 [E,G,D]3 [E,G,] [E,A,D][E,B,D] |[M:2/4] [A,,A,]4 |] %30

